X: 16
T: No_114_Song_of_the_Dogs.krn
%%abc-version 2.0
%%abcx-abcm2ps-target-version 5.9.1 (29 Sep 2008)
%%abc-creator hum2abc beta
%%abcx-conversion-date 2020/08/10 18:54:57
%%gracespace 0 6 6
%%humdrum-veritas 4247982696
%%humdrum-veritas-data 4060719246
%%linebreak <none>
%%barnumbers 0
L: 1/8
M: 2/4
%%staves {1 2}
V: 1 clef=bass
V: 2 clef=bass
K: F
[V:1] D2 [I:setbarnb 1]| 
[V:2] z2 | 
[V:1] D4 | 
[V:2] G,,G,, G,,G,, | 
[V:1] D2(3CA,A, ||  
[V:2] G,,G,, G,,G,, ||  
[V:1] [M:3/4]A,4D3/A,/ ||  
[V:2] [M:3/4]z6 ||  
[V:1] [M:2/4]A,4 | 
[V:2] [M:2/4]z4 | 
[V:1] (3A,G,G,F,2 | 
[V:2] z4 | 
[V:1] D,>D, G,3/F,/ ||  
[V:2] z4 ||  
[V:1] [M:3/4]F,4G,F, | 
[V:2] [M:3/4]z6 | 
[V:1] D,>D,D,4 | 
[V:2] z6 | 
[V:1] D,4-D,3/A,/ ||  
[V:2] z6 ||  
[V:1] [M:2/4]A,>A,A,2 | 
[V:2] [M:2/4]z4 | 
[V:1] A,>D G,G, | 
[V:2] z4 | 
[V:1] (3G,F,D,D,2- | 
[V:2] z4 | 
[V:1] D,>G, G,3/F,/ ||  
[V:2] z4 ||  
[V:1] [M:3/4]F,4G,F, | 
[V:2] [M:3/4]z6 | 
[V:1] D,>D,D,4 | 
[V:2] z6 | 
[V:1] D,4z2 |]  
[V:2] z6 |]  


